src/assets/media/svg/sprite/linkedIn.svg

<svg width="24" height="24" viewBox="0 0 24 24"  xmlns="http://www.w3.org/2000/svg">
<path fill-rule="evenodd" clip-rule="evenodd" d="M5.85944 2.952C5.85944 4.583 4.54789 5.904 2.92922 5.904C1.31055 5.904 0 4.583 0 2.952C0 1.322 1.31155 0 2.92922 0C4.54689 0 5.85944 1.322 5.85944 2.952ZM0.477194 24H5.43126V8H0.477194V24ZM13.3516 8.00001H8.59959V24H13.3516V15.601C13.3516 13.351 14.387 12.012 16.3708 12.012C18.1926 12.012 19.069 13.298 19.069 15.601V24H24V13.869C24 9.58301 21.571 7.51201 18.1766 7.51201C14.7812 7.51201 13.3516 10.155 13.3516 10.155V8.00001Z" />
</svg>

<svg xmlns="http://www.w3.org/2000/svg" width="24" height="24"><path fill-rule="evenodd" d="M5.86 2.952c0 1.631-1.312 2.952-2.93 2.952A2.94 2.94 0 0 1 0 2.952C0 1.322 1.312 0 2.93 0c1.617 0 2.93 1.322 2.93 2.952M.476 24H5.43V8H.477zM13.352 8H8.6v16h4.752v-8.399c0-2.25 1.035-3.589 3.019-3.589 1.822 0 2.698 1.286 2.698 3.589V24H24V13.869c0-4.286-2.429-6.357-5.823-6.357-3.396 0-4.825 2.643-4.825 2.643z" clip-rule="evenodd"/></svg>
